modules/hawcons-stroke/icons/icon-53-compass-north.svg

<?xml version="1.0" encoding="UTF-8" standalone="no"?>
<svg width="32px" height="32px" viewBox="0 0 32 32" version="1.1" xmlns="http://www.w3.org/2000/svg" xmlns:xlink="http://www.w3.org/1999/xlink" xmlns:sketch="http://www.bohemiancoding.com/sketch/ns">
    <!-- Generator: Sketch 3.0.3 (7891) - http://www.bohemiancoding.com/sketch -->
    <title>icon 53 compass north</title>
    <desc>Created with Sketch.</desc>
    <defs></defs>
    <g id="Page-1" stroke="none" stroke-width="1" fill="none" fill-rule="evenodd" sketch:type="MSPage">
        <g id="icon-53-compass-north" sketch:type="MSArtboardGroup" fill="#929292">
            <path d="M16,29 C23.1797021,29 29,23.1797021 29,16 C29,8.8202979 23.1797021,3 16,3 C8.8202979,3 3,8.8202979 3,16 C3,23.1797021 8.8202979,29 16,29 L16,29 Z M16,28 C22.6274173,28 28,22.6274173 28,16 C28,9.37258267 22.6274173,4 16,4 C9.37258267,4 4,9.37258267 4,16 C4,22.6274173 9.37258267,28 16,28 L16,28 Z M16,7 C16,7 19,14 19,16 C19,16.668068 19,16 19,16 C19,17.6568542 17.6534829,19 16,19 C14.3431458,19 13,17.6631378 13,16 C13,16 13,17.2099991 13,16 C13,14 16,7 16,7 L16,7 Z M16,18 C17.1045696,18 18,17.1045696 18,16 C18,14.8954304 17.1045696,14 16,14 C14.8954304,14 14,14.8954304 14,16 C14,17.1045696 14.8954304,18 16,18 L16,18 Z" id="compass-north" sketch:type="MSShapeGroup"></path>
        </g>
    </g>
</svg>

<svg width="32" height="32" xmlns="http://www.w3.org/2000/svg"><path d="M16 29c7.18 0 13-5.82 13-13S23.18 3 16 3 3 8.82 3 16s5.82 13 13 13zm0-1c6.627 0 12-5.373 12-12S22.627 4 16 4 4 9.373 4 16s5.373 12 12 12zm0-21s3 7 3 9c0 .668 0 0 0 0 0 1.657-1.347 3-3 3-1.657 0-3-1.337-3-3 0 0 0 1.21 0 0 0-2 3-9 3-9zm0 11a2 2 0 1 0 0-4 2 2 0 0 0 0 4z" fill="#929292" fill-rule="evenodd"/></svg>
